extensions/rtl/assets/appointment-icon-svg.svg

<svg width="68" height="68" viewBox="0 0 68 68" fill="none" xmlns="http://www.w3.org/2000/svg">
<path d="M0.5 34C0.5 15.4985 15.4985 0.5 34 0.5C52.5015 0.5 67.5 15.4985 67.5 34C67.5 52.5015 52.5015 67.5 34 67.5C15.4985 67.5 0.5 52.5015 0.5 34Z" stroke="#C6C6C6"/>
<path d="M41.5 19V23.5M26.5 19V23.5" stroke="#0D0D0D" stroke-width="1.5" stroke-linecap="round" stroke-linejoin="round"/>
<path d="M35.5 21.25H32.5C26.8431 21.25 24.0147 21.25 22.2574 23.0074C20.5 24.7647 20.5 27.5931 20.5 33.25V37C20.5 42.6568 20.5 45.4853 22.2574 47.2426C24.0147 49 26.8431 49 32.5 49H35.5C41.1568 49 43.9853 49 45.7426 47.2426C47.5 45.4853 47.5 42.6568 47.5 37V33.25C47.5 27.5931 47.5 24.7647 45.7426 23.0074C43.9853 21.25 41.1568 21.25 35.5 21.25Z" stroke="#0D0D0D" stroke-width="1.5" stroke-linecap="round" stroke-linejoin="round"/>
<path d="M21.25 28.75H46.75" stroke="#0D0D0D" stroke-width="1.5" stroke-linecap="round" stroke-linejoin="round"/>
<path d="M29.5 39.25C29.5 39.25 31.75 40 32.5 42.25C32.5 42.25 35.7648 36.25 40 34.75" stroke="#0D0D0D" stroke-width="1.5" stroke-linecap="round" stroke-linejoin="round"/>
</svg>

<svg xmlns="http://www.w3.org/2000/svg" width="68" height="68" fill="none"><path stroke="#C6C6C6" d="M.5 34C.5 15.499 15.499.5 34 .5 52.502.5 67.5 15.499 67.5 34c0 18.502-14.998 33.5-33.5 33.5C15.499 67.5.5 52.502.5 34Z"/><path stroke="#0D0D0D" stroke-linecap="round" stroke-linejoin="round" stroke-width="1.5" d="M41.5 19v4.5m-15-4.5v4.5M35.5 21.25h-3c-5.657 0-8.485 0-10.243 1.757C20.5 24.765 20.5 27.593 20.5 33.25V37c0 5.657 0 8.485 1.757 10.243C24.015 49 26.843 49 32.5 49h3c5.657 0 8.485 0 10.243-1.757C47.5 45.485 47.5 42.657 47.5 37v-3.75c0-5.657 0-8.485-1.757-10.243-1.758-1.757-4.586-1.757-10.243-1.757M21.25 28.75h25.5"/><path stroke="#0D0D0D" stroke-linecap="round" stroke-linejoin="round" stroke-width="1.5" d="M29.5 39.25s2.25.75 3 3c0 0 3.265-6 7.5-7.5"/></svg>
